X: 19189
T: Isabela Blackley
R: jig
M: 6/8
K: Amixolydian
e|:cee efa|dff fed|cee cee|dBB B2e
cee efa|dff fed|cee fed|cec A2e:|
|:d2f afd|cee gec|dff afd|ecA A2c|
dff afd|Bdd GBB|cee fed|ceA A2c:|
|:dff Bff|dff Bff|cee Ace|aba edc|
dff cee|Bdd GBB|cee fed|1 cec A2c:|2 cec A2f||
|:eaa efg|fed cde|Bdd GBd|gfg ecA|
eaa efg|fed cde|cee fed|1 cec A3:|2 cec A2||

